X:1
T:Me and My Fiddle
C:via Jim Calvert and Mary Acoccllo
L:1/8
M:4/4
I:linebreak $
K:G
V:1 treble
V:1
 G,G,G,G, B,2 B,2 | DD D2 G4 | C4 E3 (E | G)E G2 c4 |$ (A B2) c BAGE | D2 D2 B,2 D2 | A,4 A,3 B, | %7
 A,6 B,A, | %8
